X: 10921
T: LADY WALLACE -- Reel
R: reel
B: K\"ohler's Violin Repository, v.1, 1885 p.92 #1
F: http://www.archive.org/details/klersviolinrepos01edin
Z: 2012 John Chambers <jc:trillian.mit.edu>
M: C|
L: 1/8
K: F
|:\
vf2cA (FG)AF | (GA)Bc (dc)de | f2cA (FG)AF | DBAG F/F/FF2 :|
(fg)ag (fd)cf | (dc)df (gf)ga | (fg)ag (fd)cf | (dc)ag f/f/ff2 |
(fg)ag (fd)cf | (dc)df (gf)ga | (fg)ag (fd)cA | (BG)cA F/F/F"_Fine."F2 |]

%%sep 2 1 500

